X:1
T:O Zion! Lovely Zion!
T:O Zion! Lovely Zion!
T:Ira David Sankey
T:Frances Jane (Fanny) Crosby, 1884
T:Public Domain Courtesy of the Cyber Hymnal™
T:Public Domain Courtesy of the Cyber Hymnal™
C:Ira David Sankey
Z:Public Domain
Z:Courtesy of the Cyber Hymnal™
%%score ( 1 2 ) ( 3 4 )
L:1/8
Q:1/4=109
M:3/4
K:Ab
V:1 treble 
V:2 treble 
V:3 bass 
V:4 bass 
V:1
 E2 | [Ec]2 [Ec]2 [Fd]>[Ec] | [Ec]2 [EB]2 E2 | [DB]2 [DB]2 [Ec]>[DB] | [DB]2 [CA]2 [CE]2 | %5
w: 1.~O|Zi- on! love- ly|Zi- on! Thou|ci- ty of the|faith- ful, How|
w: 2.~O|Z- ion! love- ly|Zi- on! Thou|car- est for the|low- ly; Thy|
w: 3.~O|Zi- on! love- ly|Zi- on! O|when shall we be-|hold thee, Thy|
 [EA]3 [DG] [CA]2 | [DB]2 [DA]2 [DF]2 | [CE]2 [CA]2 [Ec]2 | [EB]4 E2 | [Ec]2 [Ec]2 [Fd]>[Ec] | %10
w: oft- en with|rap- ture Thy|prais- es we|sing! Where|mil- lions of re-|
w: ban- ner of|mer- cy Still|wav- ing we|see; Thy|watch- men thou art|
w: beau- ty and|splen- dor For-|ev- er to|share? Where|loved ones who have|
 [Ec]2 [EB]2 E2 | [DB]2 [DB]2 [Ec]>[DB] | [DB]2 [CA]2 [CE]2 | [EA]3 [EB] [Ec]2 | %14
w: deemed ones Are|dwell- ing now in|bright- ness, And|prais- ing for-|
w: send- ing With|tid- ings, joy- ful|tid- ings, To|ga- ther the|
w: en- tered Thy|bright and shin- ing|por- tals Are|wait- ing and|
 [Fd]2 [Ec]2 [EA]2 | [DB]2 [CA]2 [B,G]2 | [CA]4 ||"^Refrain" [EG]>[EA] | [EB]2 [EB]2 [Ec]2 | %19
w: ev- er Our|Sav- ior and|king.|||
w: lost ones And|bring them to|thee.|Where the|loud swell- ing|
w: watch- ing To|wel- come us|there.|||
 [EB]2 [EG]2 [EB]2 | ([GB][FA]) [EG]2 [=DF]2 | ([EG][FA]) [GB]2 (G>A) | [EB]2 [EB]2 [Ec]2 | %23
w: ||||
w: cho- rus Of|tri- * umph e-|ter- * nal, Rolls *|down from the|
w: ||||
 [EB]2 [EG]2 [EB]2 | ([GB][FA]) [EG]2 [=DF]2 | E4 EE | [Ec]2 [Ec]2 [Fd]>[Ec] | [Ec]2 [EB]2 E2 | %28
w: |||||
w: re- gions Of|end- * less de-|light, Where the|ran- somed are re-|turn- ing With|
w: |||||
 [DB]2 [DB]2 [Ec]>[DB] | [DB]2 [CA]2 [CE]2 | ([DF][EG]) ([FA][GB]) ([Ac][Bd]) | %31
w: |||
w: mu- sic and re-|joic- ing, To|walk * with * the *|
w: |||
 [Ae]2 !fermata![Ae]2 [Fd]2 | [Ec]2 [CA]2 [DB]2 | [CA]4 |] %34
w: |||
w: Sav- ior In|gar- ments of|white.|
w: |||
V:2
 E2 | x6 | x4 E2 | x6 | x6 | x6 | x6 | x6 | x4 E2 | x6 | x4 E2 | x6 | x6 | x6 | x6 | x6 | x4 || %17
 x2 | x6 | x6 | x6 | x4 E2 | x6 | x6 | x6 | E4 EE | x6 | x4 E2 | x6 | x6 | x6 | x6 | x6 | x4 |] %34
V:3
 E,2 | [A,,A,]2 [A,,A,]3/2 [A,,A,]2 [A,,A,]/ | [E,A,]2 [E,G,]2 E,2 | %3
 [E,G,]2 [E,G,]2 [E,G,]>[E,G,] | [E,G,]2 [A,,A,]2 [A,,A,]2 | [C,A,]3 [B,,F,] [A,,F,]2 | %6
 [D,F,]2 [D,F,]2 [D,A,]2 | [A,,A,]2 [A,,A,]2 [A,,A,]2 | [E,G,]4 E,2 | %9
 [A,,A,]2 [A,,A,]2 [A,,A,]>[A,,A,] | [E,A,]2 [E,G,]2 E,2 | [E,G,]2 [E,G,]2 [E,G,]>[E,G,] | %12
 [E,G,]2 [A,,A,]2 [A,,A,]2 | [C,A,]3 [B,,G,] [A,,A,]2 | A,2 A,2 [C,A,]2 | [D,F,]2 E,2 E,2 | %16
 [A,,E,]4 || E,>[E,F,] | [E,G,]2 [E,G,]2 [E,A,]2 | [E,G,]2 [E,B,]2 [E,G,]2 | %20
 [B,,B,]2 [B,,B,]2 [B,,B,]2 | [E,B,]2 [E,B,]2 (E,>F,) | [E,G,]2 [E,G,]2 [E,A,]2 | %23
 [E,G,]2 E,2 [E,G,]2 | [B,,B,]2 [B,,B,]2 [B,,B,]2 | [E,G,]4 E,E, | %26
 [A,,A,]2 [A,,A,]3/2 [A,,A,]2 [A,,A,]/ | [E,A,]2 [E,G,]2 E,2 | [E,G,]2 [E,G,]2 [E,G,]>[E,G,] | %29
 [E,G,]2 [A,,A,]2 [A,,A,]2 | [D,A,]2 [D,A,]2 [D,A,]2 | [C,A,]2 !fermata![C,A,]2 [D,A,]2 | %32
 [E,A,]2 E,2 E,2 | [A,,E,]4 |] %34
V:4
 E,2 | x6 | x4 E,2 | x6 | x6 | x6 | x6 | x6 | x4 E,2 | x6 | x4 E,2 | x6 | x6 | x6 | A,2 A,2 x2 | %15
 x2 E,2 E,2 | x4 || E,3/2 x/ | x6 | x6 | x6 | x4 E,2 | x6 | x2 E,2 x2 | x6 | x4 E,E, | x6 | %27
 x4 E,2 | x6 | x6 | x6 | x6 | x2 E,2 E,2 | x4 |] %34

